local/share/icons/dracula-icons-main/scalable/apps/system-log-out.svg

<?xml version="1.0" encoding="UTF-8"?>
<svg xmlns="http://www.w3.org/2000/svg" xmlns:xlink="http://www.w3.org/1999/xlink" width="64" height="64" viewBox="0 0 64 64">
<path fill-rule="nonzero" fill="rgb(38.823529%, 64.313725%, 21.568627%)" fill-opacity="1" d="M 8.464844 1.324219 C 12.410156 1.324219 15.609375 4.519531 15.609375 8.464844 C 15.609375 12.410156 12.410156 15.609375 8.464844 15.609375 C 4.519531 15.609375 1.324219 12.410156 1.324219 8.464844 C 1.324219 4.519531 4.519531 1.324219 8.464844 1.324219 Z M 8.464844 1.324219 "/>
<path fill-rule="nonzero" fill="rgb(100%, 100%, 100%)" fill-opacity="1" d="M 4.234375 7.902344 L 4.234375 9.03125 L 8.46875 9.03125 L 8.46875 7.902344 "/>
<path fill-rule="nonzero" fill="rgb(100%, 100%, 100%)" fill-opacity="1" d="M 4.375 9.597656 C 4.886719 11.429688 6.554688 12.695312 8.457031 12.699219 C 10.78125 12.699219 12.699219 10.804688 12.699219 8.46875 C 12.699219 6.128906 10.78125 4.234375 8.457031 4.234375 C 6.554688 4.238281 4.886719 5.503906 4.375 7.339844 L 5.46875 7.339844 C 5.953125 6.109375 7.136719 5.296875 8.457031 5.292969 C 10.238281 5.292969 11.667969 6.714844 11.667969 8.46875 C 11.667969 10.21875 10.238281 11.640625 8.457031 11.640625 C 7.128906 11.652344 5.929688 10.835938 5.449219 9.597656 "/>
</svg>

<svg width="64" height="64" version="1.1" viewBox="0 0 16.933 16.933" xmlns="http://www.w3.org/2000/svg">
 <path d="m8.4665 1.3229c3.9454 0 7.1436 3.1982 7.1436 7.1436 0 3.9454-3.1982 7.1436-7.1436 7.1436-3.9454 0-7.1436-3.1982-7.1436-7.1436 0-3.9454 3.1982-7.1436 7.1436-7.1436z" fill="#63a437" stroke-width=".2991"/>
 <g fill="#fff" stroke-width=".938">
  <path d="m4.233 7.902v1.13h4.234v-1.13"/>
  <path d="m4.375 9.596a4.248 4.248 0 0 0 4.083 3.104c2.323 0 4.242-1.895 4.242-4.233 0-2.339-1.92-4.234-4.242-4.234a4.248 4.248 0 0 0-4.083 3.105h1.093a3.225 3.225 0 0 1 2.99-2.046c1.782 0 3.21 1.422 3.21 3.175 0 1.75-1.429 3.175-3.21 3.175a3.2 3.2 0 0 1-3.007-2.046"/>
 </g>
</svg>
